teeny/outline/print.svg

<svg width="15" height="15" viewBox="0 0 15 15" fill="none" xmlns="http://www.w3.org/2000/svg">
<path d="M3.5 12.5H1.5C0.947715 12.5 0.5 12.0523 0.5 11.5V7.5C0.5 6.94772 0.947715 6.5 1.5 6.5H13.5C14.0523 6.5 14.5 6.94772 14.5 7.5V11.5C14.5 12.0523 14.0523 12.5 13.5 12.5H11.5M3.5 6.5V1.5C3.5 0.947715 3.94772 0.5 4.5 0.5H10.5C11.0523 0.5 11.5 0.947715 11.5 1.5V6.5M3.5 10.5H11.5V14.5H3.5V10.5Z" stroke="black"/>
</svg>

<svg viewBox="0 0 15 15" xmlns="http://www.w3.org/2000/svg"><path fill="none" stroke="#000" d="M3.5 12.5h-2c-.56 0-1-.45-1-1v-4c0-.56.44-1 1-1h12c.55 0 1 .44 1 1v4c0 .55-.45 1-1 1h-2m-8-6v-5c0-.56.44-1 1-1h6c.55 0 1 .44 1 1v5m-8 4h8v4h-8v-4Z"/></svg>
